public/library/mantlescan-icon-light.svg

<svg width="256" height="256" viewBox="0 0 256 256" fill="none" xmlns="http://www.w3.org/2000/svg">
<path d="M52.6926 89.7618L13.8714 69.9948C10.8253 75.9573 8.26533 82.2114 6.19141 88.5952L47.6374 102.011C48.9984 97.7982 50.6835 93.6828 52.6926 89.7618Z" fill="black"/>
<path d="M85.6457 54.9264L107.163 91.9653C110.306 90.1506 113.676 88.7572 117.143 87.8174L106.028 46.4687C108.848 45.7234 111.732 45.0753 114.648 44.6216L107.811 1.58777C101.2 2.62473 94.6219 4.21257 88.2705 6.28649L101.557 47.052C97.3115 48.4454 93.196 50.1628 89.2426 52.172L69.7024 14.0313C63.7723 17.0774 58.0042 20.6095 52.625 24.5629L78.3222 59.7547C80.6553 58.0048 83.1181 56.417 85.6457 54.9264Z" fill="black"/>
<path d="M201.039 85.6141L164 107.131C165.815 110.274 167.241 113.644 168.18 117.112L209.529 105.964C210.307 108.784 210.922 111.668 211.376 114.552L254.41 107.714C253.373 101.104 251.785 94.5254 249.679 88.1741L208.946 101.493C207.552 97.2475 205.835 93.132 203.826 89.1786L241.966 69.606C238.92 63.6759 235.388 57.9078 231.435 52.5286L196.275 78.2257C197.96 80.6237 199.548 83.0865 201.039 85.6141Z" fill="black"/>
<path d="M185.941 13.837C179.978 10.7909 173.724 8.2309 167.34 6.15698L153.957 47.603C158.137 48.964 162.253 50.649 166.206 52.6581L185.941 13.837Z" fill="black"/>
<path d="M170.447 54.1811L148.703 91.9329C151.846 93.7476 154.763 95.9835 157.323 98.5435L218.309 37.3305C213.578 32.5994 208.426 28.2247 203.046 24.3037L177.9 59.0094C175.502 57.2596 173.039 55.6393 170.447 54.1811Z" fill="black"/>
<path d="M54.1809 85.4843L91.9003 107.26C93.715 104.117 95.951 101.201 98.511 98.6083L37.3627 37.5897C32.6316 42.3208 28.2569 47.4732 24.3359 52.8525L59.0093 78.0311C57.2918 80.4291 55.6716 82.9243 54.1809 85.4843Z" fill="black"/>
<path d="M141.193 43.8763L147.772 1.52303C141.258 0.518474 134.615 0 127.972 0H127.875V86.3917H127.972C131.602 86.3917 135.231 86.8454 138.698 87.7851L149.878 45.691C147.026 44.9133 144.142 44.33 141.193 43.8763Z" fill="black"/>
<path d="M87.7851 117.274L45.691 106.062C44.9457 108.913 44.33 111.83 43.8763 114.746L1.52303 108.135C0.518474 114.649 0 121.357 0 128H86.3917C86.3917 124.338 86.8778 120.741 87.7851 117.274Z" fill="black"/>
<path d="M203.309 166.238L242.13 186.005C245.176 180.042 247.736 173.788 249.81 167.404L208.364 153.989C207.003 158.201 205.318 162.317 203.309 166.238Z" fill="black"/>
<path d="M170.321 201.04L148.836 164.002C145.693 165.816 142.323 167.21 138.855 168.149L149.97 209.498C147.151 210.243 144.267 210.892 141.351 211.345L148.188 254.379C154.799 253.342 161.377 251.754 167.728 249.68L154.442 208.915C158.687 207.521 162.803 205.804 166.756 203.795L186.296 241.936C192.226 238.89 197.995 235.357 203.374 231.404L177.709 196.212C175.343 197.994 172.881 199.582 170.321 201.04Z" fill="black"/>
<path d="M54.9609 170.385L91.9998 148.868C90.1851 145.725 88.7593 142.355 87.8195 138.888L46.4707 150.035C45.693 147.216 45.0773 144.332 44.6237 141.448L1.58984 148.285C2.6268 154.896 4.21465 161.474 6.32097 167.825L47.054 154.507C48.4475 158.72 50.1649 162.867 52.174 166.821L14.0334 186.393C17.0794 192.324 20.6116 198.092 24.565 203.471L59.7244 177.774C58.0393 175.376 56.4515 172.913 54.9609 170.385Z" fill="black"/>
<path d="M70.0586 242.162C76.0211 245.209 82.2753 247.769 88.659 249.842L102.042 208.396C97.8621 207.035 93.7466 205.35 89.7932 203.341L70.0586 242.162Z" fill="black"/>
<path d="M85.5184 201.818L107.262 164.066C104.119 162.252 101.202 160.016 98.6424 157.456L37.6562 218.669C42.3874 223.4 47.5398 227.775 52.919 231.696L78.0653 196.99C80.4632 198.707 82.9584 200.327 85.5184 201.818Z" fill="black"/>
<path d="M201.787 170.515L164.068 148.739C162.253 151.882 160.017 154.799 157.457 157.391L218.638 218.41C223.369 213.679 227.743 208.526 231.664 203.147L196.991 177.968C198.709 175.538 200.329 173.075 201.787 170.515Z" fill="black"/>
<path d="M117.273 168.214L106.094 210.308C108.945 211.054 111.862 211.669 114.778 212.123L108.2 254.476C114.713 255.481 121.357 255.999 128 255.999H128.097V169.608H128C124.37 169.608 120.741 169.122 117.273 168.214Z" fill="black"/>
<path d="M169.608 128C169.608 131.662 169.155 135.258 168.215 138.726L210.309 149.938C211.054 147.086 211.67 144.17 212.124 141.253L254.477 147.864C255.481 141.351 256 134.643 256 128H169.608Z" fill="black"/>
</svg>

<svg xmlns="http://www.w3.org/2000/svg" width="256" height="256" fill="none" viewBox="0 0 256 256"><path fill="#000" d="M52.693 89.762 13.87 69.995c-3.046 5.962-5.606 12.216-7.68 18.6l41.446 13.416a82.5 82.5 0 0 1 5.056-12.25M85.646 54.926l21.517 37.04a42 42 0 0 1 9.98-4.149L106.028 46.47c2.82-.746 5.704-1.394 8.62-1.847l-6.837-43.034a126 126 0 0 0-19.54 4.698l13.286 40.766a87 87 0 0 0-12.314 5.12l-19.54-38.14c-5.93 3.045-11.699 6.578-17.078 10.53l25.697 35.193c2.333-1.75 4.796-3.338 7.324-4.829M201.039 85.614 164 107.131c1.815 3.143 3.241 6.513 4.18 9.981l41.349-11.148a78 78 0 0 1 1.847 8.588l43.034-6.838a123 123 0 0 0-4.731-19.54l-40.733 13.319a87 87 0 0 0-5.12-12.314l38.14-19.573c-3.046-5.93-6.578-11.698-10.531-17.077l-35.16 25.697a111 111 0 0 1 4.764 7.388M185.941 13.837c-5.963-3.046-12.217-5.606-18.601-7.68l-13.383 41.446a85.5 85.5 0 0 1 12.249 5.055zM170.447 54.181l-21.744 37.752a41.8 41.8 0 0 1 8.62 6.61l60.986-61.213a129.6 129.6 0 0 0-15.263-13.026L177.9 59.009c-2.398-1.75-4.861-3.37-7.453-4.828M54.18 85.484 91.9 107.26a42.8 42.8 0 0 1 6.611-8.652L37.363 37.59a129.6 129.6 0 0 0-13.027 15.262l34.673 25.18a95 95 0 0 0-4.828 7.452M141.193 43.876l6.579-42.353A130 130 0 0 0 127.972 0h-.097v86.392h.097c3.63 0 7.259.453 10.726 1.393l11.18-42.094c-2.852-.778-5.736-1.361-8.685-1.815M87.785 117.274l-42.094-11.212a88 88 0 0 0-1.815 8.684l-42.353-6.611A131 131 0 0 0 0 128h86.392c0-3.662.486-7.259 1.393-10.726M203.309 166.238l38.821 19.767c3.046-5.963 5.606-12.217 7.68-18.601l-41.446-13.415a82.6 82.6 0 0 1-5.055 12.249M170.321 201.04l-21.485-37.038a42 42 0 0 1-9.981 4.147l11.115 41.349c-2.819.745-5.703 1.394-8.619 1.847l6.837 43.034a126 126 0 0 0 19.54-4.699l-13.286-40.765a87 87 0 0 0 12.314-5.12l19.54 38.141c5.93-3.046 11.699-6.579 17.078-10.532l-25.665-35.192a69 69 0 0 1-7.388 4.828M54.96 170.385 92 148.868c-1.815-3.143-3.24-6.513-4.18-9.98l-41.35 11.147a78 78 0 0 1-1.846-8.587L1.59 148.285a122.6 122.6 0 0 0 4.731 19.54l40.733-13.318a89 89 0 0 0 5.12 12.314l-38.14 19.572c3.045 5.931 6.578 11.699 10.531 17.078l35.16-25.697a110 110 0 0 1-4.764-7.389M70.059 242.162c5.962 3.047 12.216 5.607 18.6 7.68l13.383-41.446a85.5 85.5 0 0 1-12.249-5.055zM85.518 201.818l21.744-37.752a41.7 41.7 0 0 1-8.62-6.61l-60.986 61.213a129.7 129.7 0 0 0 15.263 13.027l25.146-34.706a95 95 0 0 0 7.453 4.828M201.787 170.515l-37.719-21.776a42.8 42.8 0 0 1-6.611 8.652l61.181 61.019a129.7 129.7 0 0 0 13.026-15.263l-34.673-25.179c1.718-2.43 3.338-4.893 4.796-7.453M117.273 168.214l-11.179 42.094a88 88 0 0 0 8.684 1.815l-6.578 42.353a130 130 0 0 0 19.8 1.523h.097v-86.391H128c-3.63 0-7.259-.486-10.727-1.394M169.608 128c0 3.662-.453 7.258-1.393 10.726l42.094 11.212a88 88 0 0 0 1.815-8.685l42.353 6.611A131 131 0 0 0 256 128z"/></svg>
